X: 17962
T: Hudie Gallagher's March
R: jig
M: 6/8
K: Dmixolydian
|:FED AFD|BAG FED|GAB cBc|~E3 EAG|
FED AFD|BAG FED|F2A GEA|1 DED DAG:|2 DED DBc||
|:dcB cBA|BAG FED|GAB cBc|~E3 EBc|
dcB cBA|BAG FED|F2A GEC|1 DED DBc:|2 DED DAG||

